src/assets/selectIcons/corda.svg

<?xml version="1.0" encoding="UTF-8" standalone="no"?>
<!DOCTYPE svg PUBLIC "-//W3C//DTD SVG 1.1//EN" "http://www.w3.org/Graphics/SVG/1.1/DTD/svg11.dtd">
<svg width="100%" height="100%" viewBox="0 0 512 512" version="1.1" xmlns="http://www.w3.org/2000/svg" xmlns:xlink="http://www.w3.org/1999/xlink" xml:space="preserve" xmlns:serif="http://www.serif.com/" style="fill-rule:evenodd;clip-rule:evenodd;stroke-linejoin:round;stroke-miterlimit:2;">
    <rect x="0" y="0" width="512" height="512" style="fill-rule:nonzero;"/>
    <path d="M248.9,57.48C248.9,61.18 249.1,65.38 250,70.08C270.6,69.78 293,70.38 311.4,72.18C311,67.88 311,63.88 311.6,60.08C288.9,57.68 269.8,56.78 248.9,57.48ZM230.9,58.48C200.4,60.78 173.1,66.28 152,73.68C153.5,76.28 155.5,79.38 157.6,82.88C175.7,76.98 202.1,72.68 231.9,70.88C231.2,66.28 230.9,62.08 230.9,58.48ZM329.4,62.68C328.9,65.88 329,69.78 330,74.58C347.3,77.38 361,81.18 369.8,85.68C376,83.48 382.5,82.18 388.8,81.58C370.1,71.48 348.2,65.98 329.4,62.68ZM135.2,80.68C127.8,84.38 121.7,88.28 117.3,92.08C110.5,98.08 108.1,103.3 108.1,107.9C111,122.3 124.7,129.3 136.1,134.6C139.7,127.3 144,120.4 149.4,114.3C139,110.2 133.5,105.4 133.4,100.5C133.4,97.08 136,93.68 141,90.38C138.9,86.98 136.9,83.78 135.2,80.68ZM379.1,101.6C375.7,107.1 365.8,112.2 350.7,116.5C353.2,125.1 354,133.5 354.3,141.9C370.1,136.9 387.4,130.6 399.7,120C405.1,114.5 410.4,107.9 408.3,100.6C398.7,98.48 388.4,99.08 379.1,101.6ZM175.5,115.4C162.3,123.7 153.6,137 147.9,153.2C148.8,167.9 149.5,188.1 160.9,198.7C165.3,166.9 182.2,134.5 200.5,117.2C192.3,109.4 184,110.1 175.5,115.4ZM333,120.7C315.1,124.2 293.8,126.5 271.3,127.4C264.7,139.8 264.4,144.9 263,154.8C289.7,154.3 314.7,151.3 336.2,146.5C336,137.5 335.9,128.9 333,120.7ZM216.8,126.7C207.6,134.3 200.5,142.4 195.1,150.7C210.5,153 227.2,154.5 244.8,154.9C246.3,145.3 247,138.1 251.2,127.8C239.5,127.8 227.9,127.4 216.8,126.7ZM96.44,126.8C86.07,149.1 109.8,163.4 124.7,170.8C125.9,164.3 127.5,157.7 129.5,151.4C116.5,145 104.2,138 96.44,126.8ZM414.6,130.7C405.1,139.6 392.6,146.6 382.6,150.9C385.5,160.9 386.2,171.2 383.6,180.6C395.2,176 404.6,170.8 411,165.4C418.8,159 422,152.9 422.2,147.2C422.4,142.1 420.1,136.7 414.6,130.7ZM365.7,157.2C346.2,163.6 323,168.3 297.6,170.8C289.4,177.9 289.3,188.9 290.4,198C314.7,196.8 337.2,193.7 356.4,189C366.6,177.8 369.4,170.5 365.7,157.2ZM85.82,164.6C69.39,194.3 99.4,210.4 120.1,219.3C120.3,209.7 120.8,199.6 121.9,189.5C108,182.2 95.3,175.3 85.82,164.6ZM434.8,165.2C428.5,175.1 420,182 410.8,187.4C412.9,194.8 413.1,201.8 411.3,208.5C422.9,201.6 437.8,189 437.9,175.9C437.9,172.4 436.9,168.9 434.8,165.2ZM186.4,167.6C183.6,174.8 181.7,182 180.4,189.4C185.5,190.5 190.8,191.5 196.3,192.5C196.7,183.8 199,176.5 203.6,170.1C197.7,169.4 192,168.6 186.4,167.6ZM226.2,172.1C219,178.5 213.2,186.7 214.3,195.1C235.2,197.5 253.1,198.6 272.3,198.5C271.7,188.9 271.8,180.6 274.9,172.5C258.6,173.2 241.3,173 226.2,172.1ZM63.79,194.2C58.59,204.3 62.74,216.4 68.08,223.6C69.42,219.6 70.97,214.8 73.05,209.3C69,204.6 65.83,199.6 63.79,194.2ZM394.6,195.6C372.9,204.4 347.4,210 327.1,212.8C320.8,219.5 323.4,228.8 324.7,236.2C349.2,232.3 371,226.5 388.8,219.4C391.6,211.8 396.1,203 394.6,195.6ZM139.1,198.6C137.4,219.4 138,240.4 138.2,257.4C143.1,277.6 161.7,264.5 161.7,261.8C161.4,249.6 159.9,234.7 160,218.5C149.8,213.2 143.3,207.3 139.1,198.6ZM442.3,207C441.4,208 440.5,208.9 439.5,209.8C440.9,220.3 441.2,232.2 440.9,241.8C445.6,236.2 447.9,230.7 448.2,225.1C448.5,219.3 446.7,213.3 442.3,207ZM178.3,207.4C177.8,217 178,226.5 178.5,235.7C189.1,237.5 200.4,239 212.1,240C210,230.4 209.9,221.4 214.1,213.2C201.6,211.8 189.7,209.8 178.3,207.4ZM306.1,215C280.6,216.7 258.7,216.9 235.4,215.3C226.3,222.2 228.5,233.5 231.5,241.3C256.9,242.4 283.3,241.3 306.8,238.6C305.5,230.2 304.2,222.7 306.1,215ZM87.61,222.1C85.68,227.8 84.19,232.7 82.34,237.5C95.64,246.7 106.9,252.8 120.2,258.3C120.1,252.3 120,245.7 119.9,238.7C107.5,233.9 96.64,228.4 87.61,222.1ZM422.7,222.7C406.2,232.5 389.4,239 372.4,244C371,255.2 367.5,266 371.3,275.8C387.7,271.8 404,266.4 418.2,258.9C423.1,247.6 423.3,232.8 422.7,222.7ZM461,246.4C462.3,251.2 462.8,256.3 462.7,261.4C469.4,258.2 476.4,257.6 482.8,260.2C482.8,253.9 482,247.6 480.4,241.4C475.2,227.3 458.7,236.2 461,246.4ZM53.99,234.8C50.68,240.2 49.11,245.5 49.11,250.8C51.82,268 61.11,277.4 73.42,286.1C72.5,276 75.32,266 81.33,258.7C70.6,251.4 61.22,244.3 53.99,234.8ZM352.8,249.1C334.8,253.2 315.2,256.3 294.3,258C286.9,265.5 286.6,276.4 290,285.6C312.7,285.1 334,282.9 353.2,279.5C351.4,269.5 351.6,258 352.8,249.1ZM179.4,254.1C179.9,261.2 179.3,269.5 175.4,275C180.5,276.1 185.8,277.2 191.2,278.2C190.1,270.3 190,262.9 192.7,256.1C188.2,255.5 183.7,254.8 179.4,254.1ZM212.1,258.1C206.3,264.6 208.7,274.4 210.3,281.2C232,283.9 251.1,285.4 271.2,285.7C269.4,276.5 269.6,267.6 272.4,259.3C252.3,260.1 230.3,259.6 212.1,258.1ZM447.4,260.7C436.3,269.9 422.6,277.4 411.4,282C409.2,289 411,295.4 412.6,301.6C426.9,295.5 438.6,288.6 447.3,281.4C446.8,274.4 448.7,267 447.4,260.7ZM97.44,267.7C88.17,276.1 91.92,290.3 94.74,298.4C108.7,305 124.5,310.3 137.9,314C135.5,303.2 135.6,293.4 140.8,284.7C125,279.5 110.9,274.4 97.44,267.7ZM473.3,276.5C453.2,290.9 445.4,311.5 429.2,329.2C431.9,336.2 435.4,342.3 438.4,348.6C458.7,328 474.5,304.7 480.4,280.6C478.5,278.4 475.9,275.9 473.3,276.5ZM392.4,288.7C371.7,295 347.7,299.5 321.5,301.9C317.6,309 321,318 323.2,324.4C350.3,320.9 374.9,315.2 395.7,308.1C393.9,301.3 392.3,295.2 392.4,288.7ZM159.5,289.9C150.5,298.9 155.6,311.9 159.2,319C176.9,322.7 196.2,325.4 216.6,327C213.8,317.9 213.6,308.4 217,300.2C196.7,297.8 177.4,294.3 159.5,289.9ZM237.4,302.2C229.5,309.1 232.5,320.6 236.8,328.2C259.5,329 284,328.3 304.9,326.4C302.5,318.7 300.9,310.6 302,303.2C278.4,304 258.5,303.8 237.4,302.2ZM51.5,359C51.96,366.7 55.03,374.5 58.47,380.5C78.34,362.6 100.1,355.1 123.6,360.3C124.5,353.4 128.2,346.4 132.4,341.7C104.2,334.3 71.51,342 51.5,359ZM414.3,343.9C403.5,353.7 391.4,362.9 378.7,371.1C382.1,377 386.3,382.8 389.1,388.3C401.6,380.2 413.5,371.3 424.5,361.6C422.3,357.2 416.4,342.2 414.3,343.9ZM152.1,348.5C145.7,353.2 141,358.7 141.3,366C159.8,373.5 178.4,385.4 197.6,397.2C198.9,391.2 201.1,383.1 203.9,377.6C187.4,367.3 170.3,356.3 152.1,348.5ZM36.81,376.4C30.12,387.6 27.14,401.2 30.77,414.9C32.69,422.1 36.38,429.1 41.82,435.7C44.97,428.5 48.67,423.2 54.86,419.8C50.63,413.5 48.5,406 49.4,399C43.73,392.2 39.51,384.3 36.81,376.4ZM363.3,380.5C343.9,391.5 323.9,400.2 305.5,405.4C303.7,410.7 303.1,417.6 305,426.3C327.2,420.7 350.9,410.8 373.7,397.7C370.4,391.3 366.7,386.2 363.3,380.5ZM219.1,386.9C216,392.5 214,398.6 215.7,408.1C238.1,420.9 261.8,431.1 287.3,429.3C285.9,422.2 285.6,415.5 286.3,409.3C264.3,410.9 242.4,400.7 219.1,386.9ZM61.46,453C66.06,456.2 72.35,454.9 75.44,450.3C78.53,445.6 77.22,439.4 72.53,436.3C60.7,428.9 53.77,447.7 61.46,453Z" style="fill:rgb(177,160,91);fill-rule:nonzero;"/>
</svg>

<svg xmlns="http://www.w3.org/2000/svg" viewBox="0 0 512 512"><path d="M0 0h512v512H0z"/><path fill="#fff" d="M248.9 57.48c0 3.7.2 7.9 1.1 12.6 20.6-.3 43 .3 61.4 2.1-.4-4.3-.4-8.3.2-12.1-22.7-2.4-41.8-3.3-62.7-2.6zm-18 1c-30.5 2.3-57.8 7.8-78.9 15.2 1.5 2.6 3.5 5.7 5.6 9.2 18.1-5.9 44.5-10.2 74.3-12-.7-4.6-1-8.8-1-12.4zm98.5 4.2c-.5 3.2-.4 7.1.6 11.9 17.3 2.8 31 6.6 39.8 11.1 6.2-2.2 12.7-3.5 19-4.1-18.7-10.1-40.6-15.6-59.4-18.9zm-194.2 18c-7.4 3.7-13.5 7.6-17.9 11.4-6.8 6-9.2 11.22-9.2 15.82 2.9 14.4 16.6 21.4 28 26.7 3.6-7.3 7.9-14.2 13.3-20.3-10.4-4.1-15.9-8.9-16-13.8 0-3.42 2.6-6.82 7.6-10.12-2.1-3.4-4.1-6.6-5.8-9.7zm243.9 20.92c-3.4 5.5-13.3 10.6-28.4 14.9 2.5 8.6 3.3 17 3.6 25.4 15.8-5 33.1-11.3 45.4-21.9 5.4-5.5 10.7-12.1 8.6-19.4-9.6-2.12-19.9-1.52-29.2 1zm-203.6 13.8c-13.2 8.3-21.9 21.6-27.6 37.8.9 14.7 1.6 34.9 13 45.5 4.4-31.8 21.3-64.2 39.6-81.5-8.2-7.8-16.5-7.1-25-1.8zm157.5 5.3c-17.9 3.5-39.2 5.8-61.7 6.7-6.6 12.4-6.9 17.5-8.3 27.4 26.7-.5 51.7-3.5 73.2-8.3-.2-9-.3-17.6-3.2-25.8zm-116.2 6c-9.2 7.6-16.3 15.7-21.7 24 15.4 2.3 32.1 3.8 49.7 4.2 1.5-9.6 2.2-16.8 6.4-27.1-11.7 0-23.3-.4-34.4-1.1zm-120.36.1c-10.37 22.3 13.36 36.6 28.26 44 1.2-6.5 2.8-13.1 4.8-19.4-13-6.4-25.3-13.4-33.06-24.6zm318.16 3.9c-9.5 8.9-22 15.9-32 20.2 2.9 10 3.6 20.3 1 29.7 11.6-4.6 21-9.8 27.4-15.2 7.8-6.4 11-12.5 11.2-18.2.2-5.1-2.1-10.5-7.6-16.5zm-48.9 26.5c-19.5 6.4-42.7 11.1-68.1 13.6-8.2 7.1-8.3 18.1-7.2 27.2 24.3-1.2 46.8-4.3 66-9 10.2-11.2 13-18.5 9.3-31.8zm-279.88 7.4c-16.43 29.7 13.58 45.8 34.28 54.7.2-9.6.7-19.7 1.8-29.8-13.9-7.3-26.6-14.2-36.08-24.9zm348.98.6c-6.3 9.9-14.8 16.8-24 22.2 2.1 7.4 2.3 14.4.5 21.1 11.6-6.9 26.5-19.5 26.6-32.6 0-3.5-1-7-3.1-10.7zm-248.4 2.4c-2.8 7.2-4.7 14.4-6 21.8 5.1 1.1 10.4 2.1 15.9 3.1.4-8.7 2.7-16 7.3-22.4-5.9-.7-11.6-1.5-17.2-2.5zm39.8 4.5c-7.2 6.4-13 14.6-11.9 23 20.9 2.4 38.8 3.5 58 3.4-.6-9.6-.5-17.9 2.6-26-16.3.7-33.6.5-48.7-.4zM63.79 194.2c-5.2 10.1-1.05 22.2 4.29 29.4 1.34-4 2.89-8.8 4.97-14.3-4.05-4.7-7.22-9.7-9.26-15.1zm330.81 1.4c-21.7 8.8-47.2 14.4-67.5 17.2-6.3 6.7-3.7 16-2.4 23.4 24.5-3.9 46.3-9.7 64.1-16.8 2.8-7.6 7.3-16.4 5.8-23.8zm-255.5 3c-1.7 20.8-1.1 41.8-.9 58.8 4.9 20.2 23.5 7.1 23.5 4.4-.3-12.2-1.8-27.1-1.7-43.3-10.2-5.3-16.7-11.2-20.9-19.9zm303.2 8.4c-.9 1-1.8 1.9-2.8 2.8 1.4 10.5 1.7 22.4 1.4 32 4.7-5.6 7-11.1 7.3-16.7.3-5.8-1.5-11.8-5.9-18.1zm-264 .4c-.5 9.6-.3 19.1.2 28.3 10.6 1.8 21.9 3.3 33.6 4.3-2.1-9.6-2.2-18.6 2-26.8-12.5-1.4-24.4-3.4-35.8-5.8zm127.8 7.6c-25.5 1.7-47.4 1.9-70.7.3-9.1 6.9-6.9 18.2-3.9 26 25.4 1.1 51.8 0 75.3-2.7-1.3-8.4-2.6-15.9-.7-23.6zm-218.49 7.1c-1.93 5.7-3.42 10.6-5.27 15.4 13.3 9.2 24.56 15.3 37.86 20.8-.1-6-.2-12.6-.3-19.6-12.4-4.8-23.26-10.3-32.29-16.6zm335.09.6c-16.5 9.8-33.3 16.3-50.3 21.3-1.4 11.2-4.9 22-1.1 31.8 16.4-4 32.7-9.4 46.9-16.9 4.9-11.3 5.1-26.1 4.5-36.2zm38.3 23.7c1.3 4.8 1.8 9.9 1.7 15 6.7-3.2 13.7-3.8 20.1-1.2 0-6.3-.8-12.6-2.4-18.8-5.2-14.1-21.7-5.2-19.4 5zM53.99 234.8c-3.31 5.4-4.88 10.7-4.88 16 2.71 17.2 12 26.6 24.31 35.3-.92-10.1 1.9-20.1 7.91-27.4-10.73-7.3-20.11-14.4-27.34-23.9zm298.81 14.3c-18 4.1-37.6 7.2-58.5 8.9-7.4 7.5-7.7 18.4-4.3 27.6 22.7-.5 44-2.7 63.2-6.1-1.8-10-1.6-21.5-.4-30.4zm-173.4 5c.5 7.1-.1 15.4-4 20.9 5.1 1.1 10.4 2.2 15.8 3.2-1.1-7.9-1.2-15.3 1.5-22.1-4.5-.6-9-1.3-13.3-2zm32.7 4c-5.8 6.5-3.4 16.3-1.8 23.1 21.7 2.7 40.8 4.2 60.9 4.5-1.8-9.2-1.6-18.1 1.2-26.4-20.1.8-42.1.3-60.3-1.2zm235.3 2.6c-11.1 9.2-24.8 16.7-36 21.3-2.2 7-.4 13.4 1.2 19.6 14.3-6.1 26-13 34.7-20.2-.5-7 1.4-14.4.1-20.7zm-349.96 7c-9.27 8.4-5.52 22.6-2.7 30.7 13.96 6.6 29.76 11.9 43.16 15.6-2.4-10.8-2.3-20.6 2.9-29.3-15.8-5.2-29.9-10.3-43.36-17zm375.86 8.8c-20.1 14.4-27.9 35-44.1 52.7 2.7 7 6.2 13.1 9.2 19.4 20.3-20.6 36.1-43.9 42-68-1.9-2.2-4.5-4.7-7.1-4.1zm-80.9 12.2c-20.7 6.3-44.7 10.8-70.9 13.2-3.9 7.1-.5 16.1 1.7 22.5 27.1-3.5 51.7-9.2 72.5-16.3-1.8-6.8-3.4-12.9-3.3-19.4zm-232.9 1.2c-9 9-3.9 22-.3 29.1 17.7 3.7 37 6.4 57.4 8-2.8-9.1-3-18.6.4-26.8-20.3-2.4-39.6-5.9-57.5-10.3zm77.9 12.3c-7.9 6.9-4.9 18.4-.6 26 22.7.8 47.2.1 68.1-1.8-2.4-7.7-4-15.8-2.9-23.2-23.6.8-43.5.6-64.6-1zM51.5 359c.46 7.7 3.53 15.5 6.97 21.5 19.87-17.9 41.63-25.4 65.13-20.2.9-6.9 4.6-13.9 8.8-18.6-28.2-7.4-60.89.3-80.9 17.3zm362.8-15.1c-10.8 9.8-22.9 19-35.6 27.2 3.4 5.9 7.6 11.7 10.4 17.2 12.5-8.1 24.4-17 35.4-26.7-2.2-4.4-8.1-19.4-10.2-17.7zm-262.2 4.6c-6.4 4.7-11.1 10.2-10.8 17.5 18.5 7.5 37.1 19.4 56.3 31.2 1.3-6 3.5-14.1 6.3-19.6-16.5-10.3-33.6-21.3-51.8-29.1zM36.81 376.4c-6.69 11.2-9.67 24.8-6.04 38.5 1.92 7.2 5.61 14.2 11.05 20.8 3.15-7.2 6.85-12.5 13.04-15.9-4.23-6.3-6.36-13.8-5.46-20.8-5.67-6.8-9.89-14.7-12.59-22.6zm326.49 4.1c-19.4 11-39.4 19.7-57.8 24.9-1.8 5.3-2.4 12.2-.5 20.9 22.2-5.6 45.9-15.5 68.7-28.6-3.3-6.4-7-11.5-10.4-17.2zm-144.2 6.4c-3.1 5.6-5.1 11.7-3.4 21.2 22.4 12.8 46.1 23 71.6 21.2-1.4-7.1-1.7-13.8-1-20-22 1.6-43.9-8.6-67.2-22.4zM61.46 453c4.6 3.2 10.89 1.9 13.98-2.7 3.09-4.7 1.78-10.9-2.91-14-11.83-7.4-18.76 11.4-11.07 16.7z"/></svg>
